src/lib/packages/icons/src/assets/filled/shield-plus.svg

<svg width="24" height="24" viewBox="0 0 24 24" fill="none" xmlns="http://www.w3.org/2000/svg">
<path d="M21 5C16 4 14.2221 3.111 12.0181 2C9.77807 3.111 8 4 3 5C3 6.137 3 9.70192 3 10.8889C3 17.5559 8.667 20.889 12 22C15.333 20.889 21 17.5559 21 10.8889C21 9.66392 21 6.194 21 5ZM14.988 12.75H12.738V15C12.738 15.414 12.402 15.75 11.988 15.75C11.574 15.75 11.238 15.414 11.238 15V12.75H8.98804C8.57404 12.75 8.23804 12.414 8.23804 12C8.23804 11.586 8.57404 11.25 8.98804 11.25H11.238V9C11.238 8.586 11.574 8.25 11.988 8.25C12.402 8.25 12.738 8.586 12.738 9V11.25H14.988C15.402 11.25 15.738 11.586 15.738 12C15.738 12.414 15.402 12.75 14.988 12.75Z" fill="currentColor"/>
</svg>

<svg xmlns="http://www.w3.org/2000/svg" width="24" height="24" fill="none"><path fill="currentColor" d="M21 5c-5-1-6.778-1.889-8.982-3C9.778 3.111 8 4 3 5v5.889c0 6.667 5.667 10 9 11.111 3.333-1.111 9-4.444 9-11.111V5Zm-6.012 7.75h-2.25V15a.75.75 0 0 1-1.5 0v-2.25h-2.25a.75.75 0 0 1 0-1.5h2.25V9a.75.75 0 0 1 1.5 0v2.25h2.25a.75.75 0 0 1 0 1.5Z"/></svg>
